X:112
T:Centre of Friends
C:Colin Hume, 1997
L:1/4
M:3/4
S:Colin Hume's website,  colinhume.com  - chords can also be printed below the stave.
%%MIDI beat 100 95 80
Q:1/4=120
H:For the wedding of Julianne Harden and John Bartholomew
K:C
P:A
[| "C"GcE | "Dm"[EG] [DF]2 | "G7"FGD | "C"E3 | "G7/B"GAB | "Am"ce2 | "Dm"dAc | "G"B2A |
P:B
"C"GcE | "Dm"[EG] [DF]2 | "G7"FdB | "Am"c2B | "F"AF2 | "Em"GE2 | "G7"FDB, | "C"C3 |
P:C
"Am"ced/c/ | "Em"BGE | "F"FAG/F/ | "C"E3 | "Am"ced/c/ | "E"B^GE | "B7"^FA^G/F/ | "E"E3 |
P:D
"Am"AcB/A/ | "G"Bdc/B/ | "F"cfe | "G"d2- "E7/G"d | "Am"cA2 | "Em"GE2 | "G7"FDB, | "C"C3 |]

